magtoapp/img/carousel/adv-icon-4.svg

<svg xmlns="http://www.w3.org/2000/svg" width="107" height="124" viewBox="0 0 107 124"><defs><style>.cls-1{fill:#f76767;fill-rule:evenodd;filter:url(#filter)}</style><filter id="filter" x="506" y="2008" width="107" height="124" filterUnits="userSpaceOnUse"><feFlood result="flood" flood-color="#fff"/><feComposite result="composite" operator="in" in2="SourceGraphic"/><feBlend result="blend" in2="SourceGraphic"/></filter></defs><path id="Forma_1" data-name="Forma 1" class="cls-1" d="M538.923 2109.27a8.265 8.265 0 1 0 8.231 8.26 8.251 8.251 0 0 0-8.231-8.26zm0 12.4a4.135 4.135 0 1 1 4.115-4.14 4.133 4.133 0 0 1-4.115 4.14zm-6.173-103.34h8.231a2.065 2.065 0 0 0 0-4.13h-8.231a2.065 2.065 0 0 0 0 4.13zm14.4 0h2.057a2.065 2.065 0 0 0 0-4.13h-2.057a2.065 2.065 0 0 0 .004 4.13zM613 2032.8h-37.039v-15.7a9.1 9.1 0 0 0-9.064-9.1h-51.833a9.1 9.1 0 0 0-9.064 9.1v105.79a9.1 9.1 0 0 0 9.064 9.11H566.9a9.1 9.1 0 0 0 9.066-9.1v-46.7H613v-43.4zm-97.936-20.67H566.9a4.966 4.966 0 0 1 4.951 4.97v3.3h-61.736v-3.3a4.966 4.966 0 0 1 4.949-4.97zm51.836 115.74h-51.836a4.966 4.966 0 0 1-4.949-4.97v-15.7h61.731v15.7a4.965 4.965 0 0 1-4.946 4.97zm4.949-24.8h-61.734v-78.54h61.731v8.27h-37.038v43.4h8.23v14.47l19.205-14.47h9.6v26.87zm37.039-31h-48.016l-13.718 10.33v-10.33h-8.231v-35.14h69.962v35.14zm-59.674-20.67h20.577a2.065 2.065 0 0 0 0-4.13h-20.58a2.065 2.065 0 0 0 0 4.13zm-2.057 8.27a2.058 2.058 0 0 0 2.057 2.06H598.6a2.065 2.065 0 0 0 0-4.13h-49.389a2.06 2.06 0 0 0-2.057 2.07z" transform="translate(-506 -2008)"/></svg>

<svg xmlns="http://www.w3.org/2000/svg" xmlns:xlink="http://www.w3.org/1999/xlink" width="107" height="124" viewBox="0 0 107 124">
  <defs>
    <style>
      .cls-1 {
        fill: #f76767;
        fill-rule: evenodd;
        filter: url(#filter);
      }
    </style>
    <filter id="filter" x="506" y="2008" width="107" height="124" filterUnits="userSpaceOnUse">
      <feFlood result="flood" flood-color="#fff"/>
      <feComposite result="composite" operator="in" in2="SourceGraphic"/>
      <feBlend result="blend" in2="SourceGraphic"/>
    </filter>
  </defs>
  <path id="Forma_1" data-name="Forma 1" class="cls-1" d="M538.923,2109.27a8.265,8.265,0,1,0,8.231,8.26A8.251,8.251,0,0,0,538.923,2109.27Zm0,12.4a4.135,4.135,0,1,1,4.115-4.14A4.133,4.133,0,0,1,538.923,2121.67Zm-6.173-103.34h8.231a2.065,2.065,0,0,0,0-4.13H532.75A2.065,2.065,0,0,0,532.75,2018.33Zm14.4,0h2.057a2.065,2.065,0,0,0,0-4.13h-2.057A2.065,2.065,0,0,0,547.154,2018.33ZM613,2032.8H575.961v-15.7a9.1,9.1,0,0,0-9.064-9.1H515.064a9.1,9.1,0,0,0-9.064,9.1v105.79a9.1,9.1,0,0,0,9.064,9.11H566.9a9.1,9.1,0,0,0,9.066-9.1v-46.7H613v-43.4Zm-97.936-20.67H566.9a4.966,4.966,0,0,1,4.951,4.97v3.3H510.115v-3.3A4.966,4.966,0,0,1,515.064,2012.13ZM566.9,2127.87H515.064a4.966,4.966,0,0,1-4.949-4.97v-15.7h61.731v15.7A4.965,4.965,0,0,1,566.9,2127.87Zm4.949-24.8H510.115v-78.54h61.731v8.27H534.808v43.4h8.23v14.47l19.205-14.47h9.6v26.87Zm37.039-31H560.872l-13.718,10.33v-10.33h-8.231v-35.14h69.962v35.14Zm-59.674-20.67h20.577a2.065,2.065,0,0,0,0-4.13H549.211A2.065,2.065,0,0,0,549.211,2051.4Zm-2.057,8.27a2.058,2.058,0,0,0,2.057,2.06H598.6a2.065,2.065,0,0,0,0-4.13H549.211A2.06,2.06,0,0,0,547.154,2059.67Z" transform="translate(-506 -2008)"/>
</svg>
